flaticon/transport/aeroplane.svg

<svg xmlns="http://www.w3.org/2000/svg" width="32" height="32" viewBox="0 0 24 24">
    <path d="M 17.59375 14.800781 C 21.03125 14.800781 23.59375 13.601562 23.59375 12 C 23.59375 10.398438 21.03125 9.199219 17.59375 9.199219 L 16.191406 9.199219 L 15.5625 8.398438 L 15.992188 8.398438 C 16.875 8.398438 17.59375 7.679688 17.59375 6.800781 C 17.59375 5.921875 16.875 5.199219 15.992188 5.199219 L 13.191406 5.199219 C 13.144531 5.199219 13.097656 5.199219 13.046875 5.203125 L 12.417969 4.398438 L 12.792969 4.398438 C 13.671875 4.398438 14.394531 3.679688 14.394531 2.800781 C 14.394531 1.921875 13.671875 1.199219 12.792969 1.199219 L 9.992188 1.199219 C 9.960938 1.199219 9.929688 1.199219 9.902344 1.199219 L 9.113281 0.199219 C 9.03125 0.078125 8.914062 0 8.753906 0 L 6.875 0 C 6.753906 0 6.554688 0.121094 6.472656 0.238281 C 6.394531 0.359375 6.351562 0.519531 6.394531 0.640625 L 8.953125 9.441406 C 7.953125 9.199219 6.03125 8.960938 4.753906 9.878906 L 2.234375 7.359375 C 2.152344 7.238281 2.03125 7.199219 1.914062 7.199219 L 0.875 7.199219 C 0.714844 7.199219 0.554688 7.28125 0.472656 7.398438 C 0.394531 7.519531 0.394531 7.679688 0.433594 7.839844 L 1.953125 12 L 0.472656 16.160156 C 0.394531 16.320312 0.433594 16.480469 0.511719 16.601562 C 0.59375 16.71875 0.753906 16.800781 0.914062 16.800781 L 1.953125 16.800781 C 2.074219 16.800781 2.191406 16.761719 2.273438 16.679688 L 4.792969 14.160156 C 6.113281 15.078125 7.992188 14.839844 8.992188 14.601562 L 6.433594 23.398438 C 6.394531 23.519531 6.433594 23.679688 6.511719 23.800781 C 6.59375 23.921875 6.714844 24 6.875 24 L 8.753906 24 C 8.914062 24 9.03125 23.921875 9.113281 23.800781 L 9.902344 22.796875 C 9.941406 22.800781 9.984375 22.800781 10.03125 22.800781 L 12.832031 22.800781 C 13.714844 22.800781 14.394531 22.078125 14.394531 21.199219 C 14.394531 20.320312 13.671875 19.601562 12.792969 19.601562 L 12.417969 19.601562 L 13.050781 18.796875 C 13.113281 18.800781 13.175781 18.800781 13.234375 18.800781 L 16.03125 18.800781 C 16.914062 18.800781 17.632812 18.078125 17.632812 17.199219 C 17.632812 16.320312 16.914062 15.601562 16.03125 15.601562 L 15.5625 15.601562 L 16.191406 14.800781 Z M 12.792969 2 C 13.234375 2 13.59375 2.359375 13.59375 2.800781 C 13.59375 3.238281 13.234375 3.601562 12.792969 3.601562 L 11.792969 3.601562 L 10.554688 2 Z M 12.832031 20.398438 C 13.273438 20.398438 13.632812 20.761719 13.632812 21.199219 C 13.632812 21.640625 13.273438 22 12.832031 22 L 10.59375 22 L 11.832031 20.398438 Z M 16.074219 16.398438 C 16.511719 16.398438 16.875 16.761719 16.875 17.199219 C 16.875 17.640625 16.511719 18 16.074219 18 L 13.753906 18 L 15.03125 16.398438 Z M 15.992188 6 C 16.433594 6 16.792969 6.359375 16.792969 6.800781 C 16.792969 7.238281 16.433594 7.601562 15.992188 7.601562 L 14.953125 7.601562 L 13.832031 6.199219 L 13.675781 6 Z M 8.59375 23.199219 L 7.3125 23.199219 L 9.914062 14.199219 C 9.953125 14.039062 9.914062 13.878906 9.792969 13.761719 C 9.671875 13.679688 9.511719 13.640625 9.351562 13.679688 C 9.351562 13.679688 6.472656 14.640625 5.074219 13.359375 L 4.953125 13.238281 L 4.59375 13.238281 L 1.832031 16 L 1.351562 16 L 2.753906 12.160156 C 2.792969 12.078125 2.792969 11.960938 2.753906 11.839844 L 1.351562 8 L 1.832031 8 L 4.511719 10.640625 C 4.671875 10.800781 4.953125 10.800781 5.113281 10.640625 C 6.234375 9.558594 8.59375 10.039062 9.394531 10.320312 C 9.554688 10.398438 9.714844 10.359375 9.832031 10.238281 C 9.953125 10.121094 9.992188 9.960938 9.953125 9.800781 L 7.3125 0.800781 L 8.59375 0.800781 L 15.792969 10 L 17.59375 10 C 20.671875 10 22.792969 11.039062 22.792969 12 C 22.792969 12.960938 20.671875 14 17.59375 14 L 15.792969 14 Z M 8.59375 23.199219"/>
    <path d="M 19.714844 13.078125 C 19.792969 13.160156 19.875 13.199219 19.992188 13.199219 C 20.074219 13.199219 20.191406 13.160156 20.273438 13.078125 C 20.59375 12.71875 20.792969 12.359375 20.792969 12 C 20.792969 11.640625 20.632812 11.28125 20.273438 10.921875 C 20.113281 10.761719 19.875 10.761719 19.714844 10.921875 C 19.554688 11.078125 19.554688 11.320312 19.714844 11.480469 C 19.914062 11.679688 19.992188 11.839844 19.992188 12 C 19.992188 12.160156 19.914062 12.320312 19.714844 12.519531 C 19.554688 12.679688 19.554688 12.921875 19.714844 13.078125 Z M 19.714844 13.078125"/>
</svg>

<svg xmlns="http://www.w3.org/2000/svg" width="32" height="32" viewBox="0 0 24 24">
    <path d="M17.594 14.8c3.437 0 6-1.198 6-2.8 0-1.602-2.563-2.8-6-2.8H16.19l-.628-.802h.43c.882 0 1.6-.718 1.6-1.597 0-.88-.718-1.602-1.6-1.602H13.19c-.046 0-.093 0-.144.004l-.629-.805h.375c.879 0 1.602-.718 1.602-1.597 0-.88-.723-1.602-1.602-1.602H9.903l-.79-1A.418.418 0 0 0 8.753 0H6.876c-.121 0-.32.121-.402.238-.078.121-.121.282-.078.403l2.558 8.8c-1-.242-2.922-.48-4.2.438l-2.519-2.52a.367.367 0 0 0-.32-.16H.875c-.16 0-.32.082-.402.2-.078.12-.078.28-.04.44L1.954 12l-1.48 4.16a.44.44 0 0 0 .039.442c.082.117.242.199.402.199h1.04c.12 0 .237-.04.32-.121l2.519-2.52c1.32.918 3.2.68 4.2.442l-2.56 8.796c-.038.122 0 .282.079.403.082.12.203.199.363.199h1.879c.16 0 .277-.078.36-.2l.788-1.003c.04.004.082.004.13.004h2.8c.883 0 1.563-.723 1.563-1.602 0-.879-.723-1.597-1.602-1.597h-.375l.633-.805c.062.004.125.004.183.004h2.797c.883 0 1.602-.723 1.602-1.602 0-.879-.719-1.597-1.602-1.597h-.468l.628-.801zM12.793 2c.441 0 .8.36.8.8 0 .438-.359.802-.8.802h-1L10.555 2zm.039 18.398a.802.802 0 0 1 0 1.602h-2.238l1.238-1.602zm3.242-4c.438 0 .801.364.801.801 0 .442-.363.801-.8.801h-2.321l1.277-1.602zM15.992 6c.442 0 .801.36.801.8 0 .438-.36.802-.8.802h-1.04l-1.121-1.403L13.676 6zM8.594 23.2H7.313l2.601-9c.04-.16 0-.321-.121-.438a.556.556 0 0 0-.441-.082s-2.88.96-4.278-.32l-.12-.122h-.36L1.832 16h-.48l1.402-3.84c.039-.082.039-.2 0-.32L1.352 8h.48l2.68 2.64c.16.16.441.16.601 0 1.121-1.081 3.48-.6 4.282-.32.16.078.32.04.437-.082.121-.117.16-.277.121-.437l-2.64-9h1.28l7.2 9.199h1.8c3.079 0 5.2 1.04 5.2 2s-2.121 2-5.2 2h-1.8zm0 0"/>
    <path d="M19.715 13.078c.078.082.16.121.277.121.082 0 .2-.039.281-.12.32-.36.52-.72.52-1.079 0-.36-.16-.719-.52-1.078a.385.385 0 0 0-.558 0 .385.385 0 0 0 0 .558c.2.2.277.36.277.52 0 .16-.078.32-.277.52a.385.385 0 0 0 0 .558zm0 0"/>
</svg>
